svg/Pictogram/pictograms-nps-misc-tunnel.svg

<svg xmlns="http://www.w3.org/2000/svg" viewBox="0 0 256 256"><path d="m0 0c-.54 0-.979-.44-.979-.981v-7.522c0-.54.439-.979.979-.979h7.521c.542 0 .982.439.982.979v7.522c0 .541-.44.981-.982.981h-7.521" fill="#fff" transform="matrix(25.90307 0 0-25.90307 30.553 5.189)"/><path d="m0 0c.652 0 1.182.527 1.182 1.18v7.521c0 .653-.53 1.182-1.182 1.182h-7.521c-.653 0-1.18-.529-1.18-1.182v-7.521c0-.653.527-1.18 1.18-1.18h7.521" transform="matrix(25.90307 0 0-25.90307 225.38 256)"/><g fill="#fff"><path d="m0 0v1.322c0 .537.436.973.975.973.537 0 .972-.436.972-.973v-1.322h-1.947" transform="matrix(25.90307 0 0-25.90307 100.93 162.71)"/><path d="m0 0c1.414 0 2.561-1.146 2.561-2.561v-3.3h.728l-.002 3.3c0 1.815-1.473 3.286-3.287 3.286-1.814 0-3.287-1.471-3.287-3.286l-.002-3.302.728.002v3.3c0 1.415 1.147 2.561 2.561 2.561" transform="matrix(25.90307 0 0-25.90307 127.99 48.724)"/><path d="m0 0h-.396l-.049-.277h.496l-.051.277" transform="matrix(25.90307 0 0-25.90307 131.28 170.04)"/><path d="m0 0h-.639l-.074-.416h.783l-.07.416" transform="matrix(25.90307 0 0-25.90307 134.47 188.26)"/><path d="m0 0h-.975l-.093-.557h1.166l-.098.557" transform="matrix(25.90307 0 0-25.90307 138.77 213.55)"/></g></svg>

<?xml version="1.0" encoding="UTF-8" standalone="no"?>
<!-- Created with Inkscape (http://www.inkscape.org/) -->
<svg
   xmlns:dc="http://purl.org/dc/elements/1.1/"
   xmlns:cc="http://creativecommons.org/ns#"
   xmlns:rdf="http://www.w3.org/1999/02/22-rdf-syntax-ns#"
   xmlns:svg="http://www.w3.org/2000/svg"
   xmlns="http://www.w3.org/2000/svg"
   xmlns:sodipodi="http://sodipodi.sourceforge.net/DTD/sodipodi-0.dtd"
   xmlns:inkscape="http://www.inkscape.org/namespaces/inkscape"
   width="256"
   height="256"
   id="svg5294"
   sodipodi:version="0.32"
   inkscape:version="0.46"
   version="1.0"
   sodipodi:docname="pictograms-nps-misc-tunnel-2.svg"
   inkscape:output_extension="org.inkscape.output.svg.inkscape">
  <defs
     id="defs5296">
    <inkscape:perspective
       sodipodi:type="inkscape:persp3d"
       inkscape:vp_x="0 : 526.18109 : 1"
       inkscape:vp_y="0 : 1000 : 0"
       inkscape:vp_z="744.09448 : 526.18109 : 1"
       inkscape:persp3d-origin="372.04724 : 350.78739 : 1"
       id="perspective5302" />
  </defs>
  <sodipodi:namedview
     id="base"
     pagecolor="#ffffff"
     bordercolor="#666666"
     borderopacity="1.0"
     gridtolerance="10000"
     guidetolerance="10"
     objecttolerance="10"
     inkscape:pageopacity="0.0"
     inkscape:pageshadow="2"
     inkscape:zoom="0.98994949"
     inkscape:cx="112.80911"
     inkscape:cy="62.857143"
     inkscape:document-units="px"
     inkscape:current-layer="layer1"
     showgrid="false"
     inkscape:window-width="725"
     inkscape:window-height="674"
     inkscape:window-x="1"
     inkscape:window-y="309" />
  <metadata
     id="metadata5299">
    <rdf:RDF>
      <cc:Work
         rdf:about="">
        <dc:format>image/svg+xml</dc:format>
        <dc:type
           rdf:resource="http://purl.org/dc/dcmitype/StillImage" />
      </cc:Work>
    </rdf:RDF>
  </metadata>
  <g
     inkscape:label="Layer 1"
     inkscape:groupmode="layer"
     id="layer1">
    <g
       id="g5738"
       transform="matrix(25.903066,0,0,-25.903066,30.552563,5.1886949)">
      <path
         d="M 0,0 C -0.54,0 -0.979,-0.44 -0.979,-0.981 L -0.979,-8.503 C -0.979,-9.043 -0.54,-9.482 0,-9.482 L 7.521,-9.482 C 8.063,-9.482 8.503,-9.043 8.503,-8.503 L 8.503,-0.981 C 8.503,-0.44 8.063,0 7.521,0 L 0,0 z"
         style="fill:#ffffff;fill-opacity:1;fill-rule:nonzero;stroke:none"
         id="path5740" />
    </g>
    <g
       id="g5742"
       transform="matrix(25.903066,0,0,-25.903066,225.38258,256)">
      <path
         d="M 0,0 C 0.652,0 1.182,0.527 1.182,1.18 L 1.182,8.701 C 1.182,9.354 0.652,9.883 0,9.883 L -7.521,9.883 C -8.174,9.883 -8.701,9.354 -8.701,8.701 L -8.701,1.18 C -8.701,0.527 -8.174,0 -7.521,0 L 0,0 z"
         style="fill:#000000;fill-opacity:1;fill-rule:nonzero;stroke:none"
         id="path5744" />
    </g>
    <g
       id="g5746"
       transform="matrix(25.903066,0,0,-25.903066,100.92601,162.70793)">
      <path
         d="M 0,0 L 0,1.322 C 0,1.859 0.436,2.295 0.975,2.295 C 1.512,2.295 1.947,1.859 1.947,1.322 L 1.947,0 L 0,0 z"
         style="fill:#ffffff;fill-opacity:1;fill-rule:nonzero;stroke:none"
         id="path5748" />
    </g>
    <g
       id="g5750"
       transform="matrix(25.903066,0,0,-25.903066,127.99223,48.724081)">
      <path
         d="M 0,0 C 1.414,0 2.561,-1.146 2.561,-2.561 L 2.561,-5.861 L 3.289,-5.861 L 3.287,-2.561 C 3.287,-0.746 1.814,0.725 0,0.725 C -1.814,0.725 -3.287,-0.746 -3.287,-2.561 L -3.289,-5.863 L -2.561,-5.861 L -2.561,-2.561 C -2.561,-1.146 -1.414,0 0,0"
         style="fill:#ffffff;fill-opacity:1;fill-rule:nonzero;stroke:none"
         id="path5752" />
    </g>
    <g
       id="g5754"
       transform="matrix(25.903066,0,0,-25.903066,131.28192,170.04347)">
      <path
         d="M 0,0 L -0.396,0 L -0.445,-0.277 L 0.051,-0.277 L 0,0 z"
         style="fill:#ffffff;fill-opacity:1;fill-rule:nonzero;stroke:none"
         id="path5756" />
    </g>
    <g
       id="g5758"
       transform="matrix(25.903066,0,0,-25.903066,134.468,188.25602)">
      <path
         d="M 0,0 L -0.639,0 L -0.713,-0.416 L 0.07,-0.416 L 0,0 z"
         style="fill:#ffffff;fill-opacity:1;fill-rule:nonzero;stroke:none"
         id="path5760" />
    </g>
    <g
       id="g5762"
       transform="matrix(25.903066,0,0,-25.903066,138.77039,213.55316)">
      <path
         d="M 0,0 L -0.975,0 L -1.068,-0.557 L 0.098,-0.557 L 0,0 z"
         style="fill:#ffffff;fill-opacity:1;fill-rule:nonzero;stroke:none"
         id="path5764" />
    </g>
  </g>
</svg>
